icons/linear-ele-other-smoking.svg

<svg xmlns="http://www.w3.org/2000/svg" width="32px" height="32px" viewBox="0 0 32 32" version="1.1">
    <title>linear-ele-other-smoking</title>
    <g id="linear-ele-other-smoking" stroke-width="1" fill-rule="evenodd">
        <path d="M29,17 C29.5522847,17 30,17.4477153 30,18 L30,24 C30,24.5522847 29.5522847,25 29,25 L7,25 C6.44771525,25 6,24.5522847 6,24 L6,18 C6,17.4477153 6.44771525,17 7,17 L29,17 Z M22,19 L8,19 L8,23 L22,23 L22,19 Z M28,19 L24,19 L24,23 L28,23 L28,19 Z M3,17 C3.55228475,17 4,17.4477153 4,18 L4,24 C4,24.5522847 3.55228475,25 3,25 C2.44771525,25 2,24.5522847 2,24 L2,18 C2,17.4477153 2.44771525,17 3,17 Z M5,7 C5.55228475,7 6,7.44771525 6,8 L6,12 C6,12.5522847 5.55228475,13 5,13 C4.44771525,13 4,12.5522847 4,12 L4,8 C4,7.44771525 4.44771525,7 5,7 Z M9,3 C9.55228475,3 10,3.44771525 10,4 L10,12 C10,12.5522847 9.55228475,13 9,13 C8.44771525,13 8,12.5522847 8,12 L8,4 C8,3.44771525 8.44771525,3 9,3 Z" id="&#24418;&#29366;" fill-rule="nonzero" />
    </g>
</svg>

<svg xmlns="http://www.w3.org/2000/svg" viewBox="0 0 32 32"><path fill="currentColor" d="M29 17a1 1 0 0 1 1 1v6a1 1 0 0 1-1 1H7a1 1 0 0 1-1-1v-6a1 1 0 0 1 1-1zm-7 2H8v4h14zm6 0h-4v4h4zM3 17a1 1 0 0 1 1 1v6a1 1 0 0 1-2 0v-6a1 1 0 0 1 1-1M5 7a1 1 0 0 1 1 1v4a1 1 0 0 1-2 0V8a1 1 0 0 1 1-1m4-4a1 1 0 0 1 1 1v8a1 1 0 0 1-2 0V4a1 1 0 0 1 1-1"/></svg>
